!!!COM: Lambardi, Francesco
!!!CDT:
!!!PTL: Il secondo libro delle villanelle a tre, quattro et a cinque
!!!PPP: Naples
!!!PPR: Giovanni Giacomo Carlino
!!!PDT: 1614
!!!PUB-format:
!!!RISM: L 361
!!!rime: 9999
!!!OTL: Occhi leggiadri e belli/ Or che volete più dal petto mio?
!!!AGN: Madrigal
!!!SCT: Trm9999a
!!!SCA: Trm9999a
!!!original-voices: 3
!!!extant-voices: 3
!!!complete: Y
!!!final: G
**kern	**text	**kern	**text	**kern	**text
*part3	*part3	*part2	*part2	*part1	*part1
*staff3	*staff3	*staff2	*staff2	*staff1	*staff1
*I"Basso	*	*I"Alto	*	*I"Canto	*
*I'B	*	*I'A	*	*I'C	*
*oclefF4	*	*oclefC1	*	*oclefC1	*
*clefF4	*	*clefG2	*	*clefG2	*
*k[b-]	*	*k[b-]	*	*k[b-]	*
*F:	*	*F:	*	*F:	*
*omet(C)	*	*omet(C)	*	*omet(C)	*
*M2/2	*	*M2/2	*	*M2/2	*
=1	=1	=1	=1	=1	=1
1G	Oc-	1g	Oc-	1b-y	Oc-
=2	=2	=2	=2	=2	=2
2.D	-chi	2.f#X	-chi	2.a	-chi
4D	leg-	4f#i	leg-	4a	leg-
=3	=3	=3	=3	=3	=3
2.AA	-gia-	2a	-gia-	2.cc	-gia-
.	.	4e	-dri e	.	.
4BB-y	-dri e	[4g	be-	4g	-dri e
=4	=4	=4	=4	=4	=4
1D	bel-	4g]	.	(>4b-y	bel-
.	.	8f#XL	.	2.a)	.
.	.	8eJ	.	.	.
.	.	2f#X	.	.	.
=5	=5	=5	=5	=5	=5
2G	-li,	2g	-li,	2g	-li,
2BB-y	Hor	2b-y	Hor	2dd	Hor
=6	=6	=6	=6	=6	=6
4F	che	4.a	che	4.cc	che
4D	vo-	.	.	.	.
.	.	8b-y	vo-	8dd	vo-
4G	-le-	4.g	-le-	4.b-y	-le-
4GG	-te	.	.	.	.
.	.	8g	-te	8b-y	-te
=7	=7	=7	=7	=7	=7
2D	più	2f#X	più	2a	più
2G	dal	4r	.	2b-y	dal
.	.	[4dd	dal	.	.
=8	=8	=8	=8	=8	=8
4F	pet-	4dd]	.	4a	pet-
4F	-to	2cc	pet-	4a	-to
[2E-X	mi-	.	.	[2g	mi-
.	.	4b-y	-to	.	.
=9	=9	=9	=9	=9	=9
2E-]	.	(>8b-y	mi-	2g]	.
.	.	4a)	.	.	.
.	.	(<8g	.	.	.
2D	-o?	2a)	-o?	2f#X	-o?
!!LO:TX:a:cj:t=[whole] &rarr; [whole-dot]
=10!|:	=10!|:	=10!|:	=10!|:	=10!|:	=10!|:
*M3/2	*	*M3/2	*	*M3/2	*
*omet(C.3/2)	*	*omet(C.3/2)	*	*omet(C.3/2)	*
2r	.	2r	.	2r	.
2G	Il	2b-y	Il	2g	Il
2A	cor	2cc	cor	2e	cor
=11	=11	=11	=11	=11	=11
*col	*	*	*	*col	*
2B-y	è	2dd	è	2e	è
1A	vo-	2dd	vo-	1e	vo-
*Xcol	*	*	*	*Xcol	*
.	.	2cc#X	.	.	.
=12	=12	=12	=12	=12	=12
2D	-stro,	2dd	-stro,	2d	-stro,
2D	Il	2f#X	Il	2dd	Il
2EnX	cor	2g#X	cor	2bnX	cor
=13	=13	=13	=13	=13	=13
*col	*	*	*	*col	*
2F	è	2a	è	2bnX	è
1EnX	vo-	2a	vo-	1bnX	vo-
*	*	*	*	*Xcol	*
.	.	2g#X	.	.	.
=14	=14	=14	=14	=14	=14
2AA	-stro,	1.a	-stro,	1.a	-stro,
2A	è	.	.	.	.
[2F#X	vo-	.	.	.	.
=15	=15	=15	=15	=15	=15
2F#]	.	2r	.	2dd	E
2G	-stro,	2r	.	1bnX	vo-
2GG	E	2g	E	.	.
*Xcol	*	*	*	*	*
=16	=16	=16	=16	=16	=16
2C	vo-	2e	vo-	1cc	-stro il
2D	-stro il	2f#X	-stro il	.	.
2E-X	mio	2g	mio	2b-X	mio
=17	=17	=17	=17	=17	=17
*col	*	*	*	*col	*
2C	de-	2g	de-	2a	de-
1D	-si-	2g	-si-	1a	-si-
*Xcol	*	*	*	*Xcol	*
.	.	2f#X	.	.	.
=18	=18	=18	=18	=18	=18
1.GGl	-o.	1.gl	-o.	1.gl	-o.
=:|!	=:|!	=:|!	=:|!	=:|!	=:|!
*-	*-	*-	*-	*-	*-
!!!system-decoration: [*]
!!!RDF**kern: > = above
!!!RDF**kern: < = below
!!!RDF**kern: i = editorial accidental
!!!RDF**kern: l = terminal long
!!!ENC: Emiliano Ricciardi
!!!END: 2019
!!!EED: Schleuse, Paul
!!!EEV: 2019/04/21
!!!YEC: Copyright 2018 Emiliano Ricciardi, All Rights Reserved
!!!ONB: Translated from MusicXML on 2019/04/21 and edited by Craig Stuart Sapp
!!@@BEGIN:	VERSEDATA
!!@SOLERTI:	NSM1
!!@CATALOGNUM:	Trm9999
!!@LAST_MODIFIED: 2020/07/12
!!@TITLE:		Occhi leggiadri e belli,/ Or che volete più dal petto mio?
!!@GENRE:		canzonetta
!!@MANUSRC:	Flc<sub>2</sub>
!!@PRINTSRC:	none
!!@@BEGIN:	VERSES
!!@ABOUTIT:
!!@ABOUTEN:
!!@EDITOR:	Ricciardi, Emiliano
!!@EDITION_TITLE:
!!@EDITION_LOC:
!!@EDITION_PUB:
!!@EDITION_DATE:
!!@EDITION_VOL:
!!@EDITION_PAGE:
!!@TRANSLATOR:	Emiliano Ricciardi and Amyrose McCue Gill
!!@VERSE:
!!	Occhi leggiadri e belli,
!!	Or che volete più dal petto mio?
!!	Il core è vostro, e vostro il mio desio.
!!@VERSE:
!!	Voi di fiammelle e strali
!!	A mio danno v'armate a tutte l'ore
!!	E pur sapete ben ch'io non ho core.
!!@VERSE:
!!	Il cor da voi fu preso
!!	Quel dì ch'io vi mirai, e vive in pene,
!!	E voi gli ordite ancor nove catene.
!!@VERSE:
!!	Ma se pur vivo, ahi lasso,
!!	Vivo del vostro lume e del mio pianto,
!!	E di tal vita ognor mi glorio e vanto.
!!@TVERSE:
!!	Eyes graceful and beautiful,
!!	Now what more do you want from my breast?
!!	My heart is yours, and yours is my desire.
!!@TVERSE:
!!	You of flames and arrows,
!!	To my harm you arm yourselves at all hours
!!	And yet well you know that I have no heart.
!!@TVERSE:
!!	My heart by you was taken
!!	That day that I gazed upon you, and it lives in pain,
!!	And for it you scheme yet more chains.
!!@TVERSE:
!!	But even if I live, alas, unhappy man,
!!	I live of your light and of my weeping,
!!	And I always glory in and pride myself of such a life.
!!@@END:		VERSES
!!@OTHER_CRIT_ED:   None
!!@ATTRIBUTION_ABOUT:	Secure
!!		<br>
!!		This poem appears in the partly autograph manuscript Tassiana N.6.5, Civica Biblioteca Angelo Mai, Bergamo. According to [Massimo Castellozzi] {footnote: Massimo Castellozzi, "Aspetti della tradizione delle <i>Rime disperse</i> di Torquato Tasso," <i>L'ellisse. Studi storici di letteratura italian</i> VIII, vol. 2 (2013): 78}, the folios 164r-172v, which include <i>Rime</i> 353, 354, 356, 358, 359, 361, and NSM1, are in Tasso's hand.
!!@DATING:	Early 1590s
!!		<br>
!!		Before being incorporated into the manscript Tassiana N.6.5, Civica Biblioteca Angelo Mai, Bergamo, this poem used to belong to the Torella codex (MA 462, Pierpont Morgan Library, New York City, NY), a manuscript assembled in Naples and containing for the most part poems and letters that Tasso wrote during his stay in the city in the early 1590s.
!!@DEDICATEE:
!!@COMMENTARY:
!!@@END:		VERSEDATA
!!@@BEGIN:	SETTING
!!@CATALOGNUM:	Trm9999a
!!@RIMETITLE:	Occhi leggiadri e belli/ Or che volete più dal petto mio?
!!@SOLERTI:	nsm1
!!@COMPOSER:	Lambardi, Francesco
!!@PRINCEPSTITLE:	Il secondo libro delle villanelle a tre, quattro et a cinque
!!@PRINCEPSLOC:	Napoli
!!@NORMLOC:	Naples
!!@NORMPUB:	Giovanni Giacomo Carlino
!!@NORMPUBSHORT:	Carlino
!!@PRINCEPSPUB:	Carlino
!!@PRINCEPSYEAR:	1614
!!@PRINCEPSRISM:	L 361
!!@REPRINTS:	
!!@OVOICES:	3
!!@EXTANTVOICES:	3
!!@PARTBOOKS:	
!!@EXTPARTBOOKS:	
!!@OCLEFS:	C1,C1,F4
!!@OMENSURATION:	C; C-dot 3/2
!!@OKEYSIG:	b-
!!@FINAL:	G
!!@TIMPEDITOR:	Schleuse, Paul
!!@NOTE:		
!!@@END:		SETTING
